assets/frontend.svg

<svg viewBox="0 0 464 464"
  xmlns="http://www.w3.org/2000/svg">
  <path d="m320 0h-176c-17.671875 0-32 14.328125-32 32v16h240v-16c0-17.671875-14.328125-32-32-32zm0 0" fill="#126099"/>
  <path d="m112 432c0 17.671875 14.328125 32 32 32h176c17.671875 0 32-14.328125 32-32v-32h-240zm0 0" fill="#126099"/>
  <path d="m112 48h240v352h-240zm0 0" fill="#4398d1"/>
  <path d="m240 212c.085938-32.171875-14.210938-62.695312-38.984375-83.222656-24.769531-20.527344-57.421875-28.910156-89.015625-22.847656v212.140624c6.59375 1.261719 13.289062 1.90625 20 1.929688 1.351562 0 2.664062-.152344 4-.199219v16.199219h24v-19.800781c47.164062-12.640625 79.972656-55.371094 80-104.199219zm0 0" fill="#3e8cc7"/>
  <path d="m112 384v16h240v-256zm0 0" fill="#3e8cc7"/>
  <path d="m224 424h16v16h-16zm0 0" fill="#3181bd"/>
  <path d="m240 200c0 53.019531-42.980469 96-96 96s-96-42.980469-96-96 42.980469-96 96-96c25.488281-.085938 49.957031 10 67.980469 28.019531 18.019531 18.023438 28.105469 42.492188 28.019531 67.980469zm0 0" fill="#126099"/>
  <path d="m176 184c0 17.671875-14.328125 32-32 32s-32-14.328125-32-32 14.328125-32 32-32 32 14.328125 32 32zm0 0" fill="#fec9a3"/>
  <path d="m304 280 131.0625-115.640625c3.183594-2.808594 7.277344-4.355469 11.523438-4.359375 9.617187 0 17.414062 7.796875 17.414062 17.414062-.003906 4.246094-1.550781 8.339844-4.359375 11.523438l-115.640625 131.0625zm0 0" fill="#e3584b"/>
  <path d="m304 280c-26.507812 0-48 21.492188-48 48v14.113281c0 10.960938-6.195312 20.984375-16 25.886719h56c26.507812 0 48-21.492188 48-48zm0 0" fill="#87ced9"/>
  <path d="m0 360h176v64h-176zm0 0" fill="#87ced9"/>
  <path d="m24 384h40v16h-40zm0 0" fill="#5eb3d1"/>
  <path d="m80 384h72v16h-72zm0 0" fill="#5eb3d1"/>
  <path d="m0 32h80v64h-80zm0 0" fill="#87ced9"/>
  <path d="m24 56h32v16h-32zm0 0" fill="#5eb3d1"/>
  <path d="m144 216c-26.507812 0-48 21.492188-48 48v19.113281c29.691406 17.183594 66.308594 17.183594 96 0v-19.113281c0-26.507812-21.492188-48-48-48zm0 0" fill="#e3584b"/>
  <path d="m272 192h-24.40625c-3.988281-51.050781-44.542969-91.605469-95.59375-95.59375v-24.40625h-16v24.40625c-51.050781 3.988281-91.605469 44.542969-95.59375 95.59375h-24.40625v16h24.425781c3.773438 51.148438 44.425781 91.828125 95.574219 95.632812v24.367188h16v-24.367188c51.148438-3.804687 91.800781-44.484374 95.574219-95.632812h24.425781zm-69.335938 73.601562c-14.070312 12.617188-31.839843 20.34375-50.664062 22.03125v-15.632812h-16v15.632812c-42.300781-3.792968-75.8125-37.332031-79.574219-79.632812h15.574219v-16h-15.59375c3.910156-42.234375 37.359375-75.683594 79.59375-79.59375v15.59375h16v-15.59375c42.234375 3.910156 75.683594 37.359375 79.59375 79.59375h-15.59375v16h15.574219c-2 22.179688-12.332031 42.773438-28.910157 57.640625zm0 0" fill="#e3584b"/>
  <path d="m256 48h96v96h-96zm0 0" fill="#3e8cc7"/>
  <path d="m272 32h176v96h-176zm0 0" fill="#87ced9"/>
  <g fill="#5eb3d1">
    <path d="m296 56h32v16h-32zm0 0"/>
    <path d="m344 56h80v16h-80zm0 0"/>
    <path d="m296 88h128v16h-128zm0 0"/>
  </g>
</svg>

<svg viewBox="0 0 464 464" xmlns="http://www.w3.org/2000/svg"><path d="M320 0H144c-17.672 0-32 14.328-32 32v16h240V32c0-17.672-14.328-32-32-32zm0 0M112 432c0 17.672 14.328 32 32 32h176c17.672 0 32-14.328 32-32v-32H112zm0 0" fill="#126099"/><path d="M112 48h240v352H112zm0 0" fill="#4398d1"/><path d="M240 212a107.701 107.701 0 00-38.984-83.223A107.701 107.701 0 00112 105.93v212.14a108.428 108.428 0 0020 1.93c1.352 0 2.664-.152 4-.2V336h24v-19.8c47.164-12.641 79.973-55.372 80-104.2zm0 0" fill="#3e8cc7"/><path d="M112 384v16h240V144zm0 0" fill="#3e8cc7"/><path d="M224 424h16v16h-16zm0 0" fill="#3181bd"/><path d="M240 200c0 53.02-42.98 96-96 96s-96-42.98-96-96 42.98-96 96-96a95.693 95.693 0 0167.98 28.02A95.693 95.693 0 01240 200zm0 0" fill="#126099"/><path d="M176 184c0 17.672-14.328 32-32 32s-32-14.328-32-32 14.328-32 32-32 32 14.328 32 32zm0 0" fill="#fec9a3"/><path d="M304 280l131.063-115.64a17.433 17.433 0 0111.523-4.36c9.617 0 17.414 7.797 17.414 17.414a17.433 17.433 0 01-4.36 11.524L344 320zm0 0" fill="#e3584b"/><path d="M304 280c-26.508 0-48 21.492-48 48v14.113A28.946 28.946 0 01240 368h56c26.508 0 48-21.492 48-48zm0 0M0 360h176v64H0zm0 0" fill="#87ced9"/><path d="M24 384h40v16H24zm0 0M80 384h72v16H80zm0 0" fill="#5eb3d1"/><path d="M0 32h80v64H0zm0 0" fill="#87ced9"/><path d="M24 56h32v16H24zm0 0" fill="#5eb3d1"/><path d="M144 216c-26.508 0-48 21.492-48 48v19.113a95.831 95.831 0 0096 0V264c0-26.508-21.492-48-48-48zm0 0" fill="#e3584b"/><path d="M272 192h-24.406c-3.989-51.05-44.543-91.605-95.594-95.594V72h-16v24.406C84.95 100.395 44.395 140.95 40.406 192H16v16h24.426c3.773 51.148 44.426 91.828 95.574 95.633V328h16v-24.367c51.148-3.805 91.8-44.485 95.574-95.633H272zm-69.336 73.602A87.596 87.596 0 01152 287.632V272h-16v15.633C93.7 283.84 60.187 250.3 56.426 208H72v-16H56.406c3.91-42.234 37.36-75.684 79.594-79.594V128h16v-15.594c42.234 3.91 75.684 37.36 79.594 79.594H216v16h15.574a88.045 88.045 0 01-28.91 57.64zm0 0" fill="#e3584b"/><path d="M256 48h96v96h-96zm0 0" fill="#3e8cc7"/><path d="M272 32h176v96H272zm0 0" fill="#87ced9"/><g fill="#5eb3d1"><path d="M296 56h32v16h-32zm0 0M344 56h80v16h-80zm0 0M296 88h128v16H296zm0 0"/></g></svg>
